public/icons/settings.svg

<?xml version="1.0"?><svg xmlns="http://www.w3.org/2000/svg"  viewBox="0 0 30 30" width="30px" height="30px">    <path d="M 15 2 C 14.448 2 14 2.448 14 3 L 14 3.171875 C 14 3.649875 13.663406 4.0763437 13.191406 4.1523438 C 12.962406 4.1893437 12.735719 4.2322031 12.511719 4.2832031 C 12.047719 4.3892031 11.578484 4.1265 11.396484 3.6875 L 11.330078 3.53125 C 11.119078 3.02125 10.534437 2.7782344 10.023438 2.9902344 C 9.5134375 3.2012344 9.2704219 3.785875 9.4824219 4.296875 L 9.5488281 4.4570312 C 9.7328281 4.8970313 9.5856875 5.4179219 9.1796875 5.6699219 C 8.9836875 5.7919219 8.7924688 5.9197344 8.6054688 6.0527344 C 8.2174688 6.3297344 7.68075 6.2666875 7.34375 5.9296875 L 7.2226562 5.8085938 C 6.8316562 5.4175937 6.1985937 5.4175938 5.8085938 5.8085938 C 5.4185938 6.1995938 5.4185938 6.8326563 5.8085938 7.2226562 L 5.9296875 7.34375 C 6.2666875 7.68075 6.3297344 8.2164688 6.0527344 8.6054688 C 5.9197344 8.7924687 5.7919219 8.9836875 5.6699219 9.1796875 C 5.4179219 9.5856875 4.8960781 9.7337812 4.4550781 9.5507812 L 4.296875 9.484375 C 3.786875 9.273375 3.2002813 9.5153906 2.9882812 10.025391 C 2.7772813 10.535391 3.0192969 11.120031 3.5292969 11.332031 L 3.6855469 11.396484 C 4.1245469 11.578484 4.3892031 12.047719 4.2832031 12.511719 C 4.2322031 12.735719 4.1873906 12.962406 4.1503906 13.191406 C 4.0753906 13.662406 3.649875 14 3.171875 14 L 3 14 C 2.448 14 2 14.448 2 15 C 2 15.552 2.448 16 3 16 L 3.171875 16 C 3.649875 16 4.0763437 16.336594 4.1523438 16.808594 C 4.1893437 17.037594 4.2322031 17.264281 4.2832031 17.488281 C 4.3892031 17.952281 4.1265 18.421516 3.6875 18.603516 L 3.53125 18.669922 C 3.02125 18.880922 2.7782344 19.465563 2.9902344 19.976562 C 3.2012344 20.486563 3.785875 20.729578 4.296875 20.517578 L 4.4570312 20.451172 C 4.8980312 20.268172 5.418875 20.415312 5.671875 20.820312 C 5.793875 21.016313 5.9206875 21.208484 6.0546875 21.396484 C 6.3316875 21.784484 6.2686406 22.321203 5.9316406 22.658203 L 5.8085938 22.779297 C 5.4175937 23.170297 5.4175938 23.803359 5.8085938 24.193359 C 6.1995938 24.583359 6.8326562 24.584359 7.2226562 24.193359 L 7.3457031 24.072266 C 7.6827031 23.735266 8.2174688 23.670266 8.6054688 23.947266 C 8.7934688 24.081266 8.9856406 24.210031 9.1816406 24.332031 C 9.5866406 24.584031 9.7357344 25.105875 9.5527344 25.546875 L 9.4863281 25.705078 C 9.2753281 26.215078 9.5173438 26.801672 10.027344 27.013672 C 10.537344 27.224672 11.121984 26.982656 11.333984 26.472656 L 11.398438 26.316406 C 11.580438 25.877406 12.049672 25.61275 12.513672 25.71875 C 12.737672 25.76975 12.964359 25.814562 13.193359 25.851562 C 13.662359 25.924562 14 26.350125 14 26.828125 L 14 27 C 14 27.552 14.448 28 15 28 C 15.552 28 16 27.552 16 27 L 16 26.828125 C 16 26.350125 16.336594 25.923656 16.808594 25.847656 C 17.037594 25.810656 17.264281 25.767797 17.488281 25.716797 C 17.952281 25.610797 18.421516 25.8735 18.603516 26.3125 L 18.669922 26.46875 C 18.880922 26.97875 19.465563 27.221766 19.976562 27.009766 C 20.486563 26.798766 20.729578 26.214125 20.517578 25.703125 L 20.451172 25.542969 C 20.268172 25.101969 20.415312 24.581125 20.820312 24.328125 C 21.016313 24.206125 21.208484 24.079312 21.396484 23.945312 C 21.784484 23.668312 22.321203 23.731359 22.658203 24.068359 L 22.779297 24.191406 C 23.170297 24.582406 23.803359 24.582406 24.193359 24.191406 C 24.583359 23.800406 24.584359 23.167344 24.193359 22.777344 L 24.072266 22.654297 C 23.735266 22.317297 23.670266 21.782531 23.947266 21.394531 C 24.081266 21.206531 24.210031 21.014359 24.332031 20.818359 C 24.584031 20.413359 25.105875 20.264266 25.546875 20.447266 L 25.705078 20.513672 C 26.215078 20.724672 26.801672 20.482656 27.013672 19.972656 C 27.224672 19.462656 26.982656 18.878016 26.472656 18.666016 L 26.316406 18.601562 C 25.877406 18.419563 25.61275 17.950328 25.71875 17.486328 C 25.76975 17.262328 25.814562 17.035641 25.851562 16.806641 C 25.924562 16.337641 26.350125 16 26.828125 16 L 27 16 C 27.552 16 28 15.552 28 15 C 28 14.448 27.552 14 27 14 L 26.828125 14 C 26.350125 14 25.923656 13.663406 25.847656 13.191406 C 25.810656 12.962406 25.767797 12.735719 25.716797 12.511719 C 25.610797 12.047719 25.8735 11.578484 26.3125 11.396484 L 26.46875 11.330078 C 26.97875 11.119078 27.221766 10.534437 27.009766 10.023438 C 26.798766 9.5134375 26.214125 9.2704219 25.703125 9.4824219 L 25.542969 9.5488281 C 25.101969 9.7318281 24.581125 9.5846875 24.328125 9.1796875 C 24.206125 8.9836875 24.079312 8.7915156 23.945312 8.6035156 C 23.668312 8.2155156 23.731359 7.6787969 24.068359 7.3417969 L 24.191406 7.2207031 C 24.582406 6.8297031 24.582406 6.1966406 24.191406 5.8066406 C 23.800406 5.4156406 23.167344 5.4156406 22.777344 5.8066406 L 22.65625 5.9296875 C 22.31925 6.2666875 21.782531 6.3316875 21.394531 6.0546875 C 21.206531 5.9206875 21.014359 5.7919219 20.818359 5.6699219 C 20.413359 5.4179219 20.266219 4.8960781 20.449219 4.4550781 L 20.515625 4.296875 C 20.726625 3.786875 20.484609 3.2002812 19.974609 2.9882812 C 19.464609 2.7772813 18.879969 3.0192969 18.667969 3.5292969 L 18.601562 3.6855469 C 18.419563 4.1245469 17.950328 4.3892031 17.486328 4.2832031 C 17.262328 4.2322031 17.035641 4.1873906 16.806641 4.1503906 C 16.336641 4.0753906 16 3.649875 16 3.171875 L 16 3 C 16 2.448 15.552 2 15 2 z M 15 7 C 19.078645 7 22.438586 10.054876 22.931641 14 L 16.728516 14 A 2 2 0 0 0 15 13 A 2 2 0 0 0 14.998047 13 L 11.896484 7.625 C 12.850999 7.222729 13.899211 7 15 7 z M 10.169922 8.6328125 L 13.269531 14 A 2 2 0 0 0 13 15 A 2 2 0 0 0 13.269531 15.996094 L 10.167969 21.365234 C 8.2464258 19.903996 7 17.600071 7 15 C 7 12.398945 8.2471371 10.093961 10.169922 8.6328125 z M 16.730469 16 L 22.931641 16 C 22.438586 19.945124 19.078645 23 15 23 C 13.899211 23 12.850999 22.777271 11.896484 22.375 L 14.998047 17 A 2 2 0 0 0 15 17 A 2 2 0 0 0 16.730469 16 z"/></svg>

<svg xmlns="http://www.w3.org/2000/svg" xmlns:xlink="http://www.w3.org/1999/xlink" viewBox="0,0,256,256" width="25px" height="25px"><g fill="#515151" fill-rule="nonzero" stroke="none" stroke-width="1" stroke-linecap="butt" stroke-linejoin="miter" stroke-miterlimit="10" stroke-dasharray="" stroke-dashoffset="0" font-family="none" font-weight="none" font-size="none" text-anchor="none" style="mix-blend-mode: normal"><g transform="scale(8.53333,8.53333)"><path d="M15,2c-0.552,0 -1,0.448 -1,1v0.17188c0,0.478 -0.33659,0.90447 -0.80859,0.98047c-0.229,0.037 -0.45569,0.07986 -0.67969,0.13086c-0.464,0.106 -0.93323,-0.1567 -1.11524,-0.5957l-0.06641,-0.15625c-0.211,-0.51 -0.79564,-0.75302 -1.30664,-0.54102c-0.51,0.211 -0.75302,0.79564 -0.54102,1.30664l0.06641,0.16016c0.184,0.44 0.03686,0.96089 -0.36914,1.21289c-0.196,0.122 -0.38722,0.24981 -0.57422,0.38281c-0.388,0.277 -0.92472,0.21395 -1.26172,-0.12305l-0.12109,-0.12109c-0.391,-0.391 -1.02406,-0.391 -1.41406,0c-0.39,0.391 -0.39,1.02406 0,1.41406l0.12109,0.12109c0.337,0.337 0.40005,0.87272 0.12305,1.26172c-0.133,0.187 -0.26081,0.37822 -0.38281,0.57422c-0.252,0.406 -0.77384,0.55409 -1.21484,0.37109l-0.1582,-0.06641c-0.51,-0.211 -1.09659,0.03102 -1.30859,0.54102c-0.211,0.51 0.03102,1.09464 0.54102,1.30664l0.15625,0.06445c0.439,0.182 0.70366,0.65124 0.59766,1.11524c-0.051,0.224 -0.09581,0.45069 -0.13281,0.67969c-0.075,0.471 -0.50052,0.80859 -0.97852,0.80859h-0.17187c-0.552,0 -1,0.448 -1,1c0,0.552 0.448,1 1,1h0.17188c0.478,0 0.90447,0.33659 0.98047,0.80859c0.037,0.229 0.07986,0.45569 0.13086,0.67969c0.106,0.464 -0.1567,0.93323 -0.5957,1.11523l-0.15625,0.06641c-0.51,0.211 -0.75302,0.79564 -0.54102,1.30664c0.211,0.51 0.79564,0.75302 1.30664,0.54102l0.16016,-0.06641c0.441,-0.183 0.96184,-0.03586 1.21484,0.36914c0.122,0.196 0.24881,0.38817 0.38281,0.57617c0.277,0.388 0.21395,0.92472 -0.12305,1.26172l-0.12305,0.12109c-0.391,0.391 -0.391,1.02406 0,1.41406c0.391,0.39 1.02406,0.391 1.41406,0l0.12305,-0.12109c0.337,-0.337 0.87177,-0.402 1.25977,-0.125c0.188,0.134 0.38017,0.26277 0.57617,0.38477c0.405,0.252 0.55409,0.77384 0.37109,1.21484l-0.06641,0.1582c-0.211,0.51 0.03102,1.09659 0.54102,1.30859c0.51,0.211 1.09464,-0.03102 1.30664,-0.54102l0.06445,-0.15625c0.182,-0.439 0.65123,-0.70366 1.11523,-0.59766c0.224,0.051 0.45069,0.09581 0.67969,0.13281c0.469,0.073 0.80664,0.49856 0.80664,0.97656v0.17188c0,0.552 0.448,1 1,1c0.552,0 1,-0.448 1,-1v-0.17187c0,-0.478 0.33659,-0.90447 0.80859,-0.98047c0.229,-0.037 0.45569,-0.07986 0.67969,-0.13086c0.464,-0.106 0.93323,0.1567 1.11523,0.5957l0.06641,0.15625c0.211,0.51 0.79564,0.75302 1.30664,0.54102c0.51,-0.211 0.75302,-0.79564 0.54102,-1.30664l-0.06641,-0.16016c-0.183,-0.441 -0.03586,-0.96184 0.36914,-1.21484c0.196,-0.122 0.38817,-0.24881 0.57617,-0.38281c0.388,-0.277 0.92472,-0.21395 1.26172,0.12305l0.12109,0.12305c0.391,0.391 1.02406,0.391 1.41406,0c0.39,-0.391 0.391,-1.02406 0,-1.41406l-0.12109,-0.12305c-0.337,-0.337 -0.402,-0.87177 -0.125,-1.25977c0.134,-0.188 0.26277,-0.38017 0.38477,-0.57617c0.252,-0.405 0.77384,-0.55409 1.21484,-0.37109l0.1582,0.06641c0.51,0.211 1.09659,-0.03102 1.30859,-0.54102c0.211,-0.51 -0.03102,-1.09464 -0.54102,-1.30664l-0.15625,-0.06445c-0.439,-0.182 -0.70366,-0.65123 -0.59766,-1.11523c0.051,-0.224 0.09581,-0.45069 0.13281,-0.67969c0.073,-0.469 0.49856,-0.80664 0.97656,-0.80664h0.17188c0.552,0 1,-0.448 1,-1c0,-0.552 -0.448,-1 -1,-1h-0.17187c-0.478,0 -0.90447,-0.33659 -0.98047,-0.80859c-0.037,-0.229 -0.07986,-0.45569 -0.13086,-0.67969c-0.106,-0.464 0.1567,-0.93323 0.5957,-1.11524l0.15625,-0.06641c0.51,-0.211 0.75302,-0.79564 0.54102,-1.30664c-0.211,-0.51 -0.79564,-0.75302 -1.30664,-0.54102l-0.16016,0.06641c-0.441,0.183 -0.96184,0.03586 -1.21484,-0.36914c-0.122,-0.196 -0.24881,-0.38817 -0.38281,-0.57617c-0.277,-0.388 -0.21395,-0.92472 0.12305,-1.26172l0.12305,-0.12109c0.391,-0.391 0.391,-1.02406 0,-1.41406c-0.391,-0.391 -1.02406,-0.391 -1.41406,0l-0.12109,0.12305c-0.337,0.337 -0.87372,0.402 -1.26172,0.125c-0.188,-0.134 -0.38017,-0.26277 -0.57617,-0.38477c-0.405,-0.252 -0.55214,-0.77384 -0.36914,-1.21484l0.06641,-0.1582c0.211,-0.51 -0.03102,-1.09659 -0.54102,-1.30859c-0.51,-0.211 -1.09464,0.03102 -1.30664,0.54102l-0.06641,0.15625c-0.182,0.439 -0.65123,0.70366 -1.11523,0.59766c-0.224,-0.051 -0.45069,-0.09581 -0.67969,-0.13281c-0.47,-0.075 -0.80664,-0.50052 -0.80664,-0.97852v-0.17187c0,-0.552 -0.448,-1 -1,-1zM15,7c4.07865,0 7.43859,3.05488 7.93164,7h-6.20312c-0.35663,-0.61771 -1.01525,-0.99874 -1.72852,-1c-0.00065,0 -0.0013,0 -0.00195,0l-3.10156,-5.375c0.95452,-0.40227 2.00273,-0.625 3.10352,-0.625zM10.16992,8.63281l3.09961,5.36719c-0.17609,0.30389 -0.26905,0.64878 -0.26953,1c0.00117,0.34989 0.0941,0.69336 0.26953,0.99609l-3.10156,5.36914c-1.92154,-1.46124 -3.16797,-3.76516 -3.16797,-6.36523c0,-2.60106 1.24714,-4.90604 3.16992,-6.36719zM16.73047,16h6.20117c-0.49305,3.94512 -3.853,7 -7.93164,7c-1.10079,0 -2.149,-0.22273 -3.10352,-0.625l3.10156,-5.375c0.00065,0 0.0013,0 0.00195,0c0.71397,-0.00056 1.37349,-0.38169 1.73047,-1z"></path></g></g></svg>
